www/assets/icons/curtains.svg

<svg xmlns="http://www.w3.org/2000/svg" width="24" height="24" viewBox="0 0 24 24" fill='currentColor'><path d="M20 19V3H4v16H2v2h20v-2zM8.19 12c2.04-1.35 3.5-3.94 3.76-7h.09c.26 3.06 1.72 5.65 3.76 7-2.04 1.35-3.5 3.94-3.76 7h-.09c-.26-3.06-1.72-5.65-3.76-7"/></svg>

<svg width="24" height="24" viewBox="0 0 24 24" xmlns="http://www.w3.org/2000/svg" fill='currentColor'><path d="M20 19V3H4V19H2V21H22V19H20ZM8.19 12C10.23 10.65 11.69 8.06 11.95 5H12.04C12.3 8.06 13.76 10.65 15.8 12C13.76 13.35 12.3 15.94 12.04 19H11.95C11.69 15.94 10.23 13.35 8.19 12Z"/></svg>
